X:287
T:Girls of Banbridge, The
T:Galbally Jig, The
R:jig
Z:id:hn-jig-287
M:6/8
K:D
Add dcB|A2G FED|~F3 FED|~E3 EFG|
Add dcB|A2G FED|~f3 gec|edc d3:|
|:Adf ~f2a|agf efg|~f3 ged|~c3 BcB|
Adf ~f2a|agf efg|~f3 gec|edc d3:|
P:variations
|:A2d dcB|ABG FED|FAD FED|CEE EFG|
A2d dcB|ABG FED|dfa gec|edc d3:|
|:~A3 dfa|agf efg|~f3 ged|cec BcB|
~A3 dfa|agf efg|fef gec|edc d3:|
P:more variations
|:AFA dcB|BAG FED|F/G/AD FED|CDE EFG|
AFA dcB|BAG FED|f/g/af gec|ded d2B:|
|:AFA dfa|agf efg|f/g/ag fed|cde edB|
AFA dfa|agf efg|f/g/af gec|ded d2B:|

